packages/vapor/resources/icons/svg/source-sharepoint.svg

<svg viewBox="0 0 32 32" xmlns="http://www.w3.org/2000/svg"><path d="m30 2v28h-28v-28zm0-2h-28a2 2 0 0 0 -2 2v28a2 2 0 0 0 2 2h28a2 2 0 0 0 2-2v-28a2 2 0 0 0 -2-2z" fill="#bcc3ca"/><circle cx="15.3" cy="11.5" fill="#036c70" r="6.6"/><circle cx="21.4" cy="17.3" fill="#1a9ba1" r="5.6"/><circle cx="16" cy="22.6" fill="#37c6d0" r="4.5"/><path d="m16.5 9.8h-7.5a6.58 6.58 0 0 0 4.6 8.1 5 5 0 0 0 1.7.2h.6a4.6 4.6 0 0 0 -4.4 4.5v.3h4.9a.9.9 0 0 0 .9-.9v-11.3a.77.77 0 0 0 -.8-.9z" opacity=".1"/><path d="m15.8 10.5h-7a6.56 6.56 0 0 0 5.4 7.5 3.4 3.4 0 0 0 1 .1h.6a4.55 4.55 0 0 0 -4.4 4.6 2.77 2.77 0 0 0 .1.9h4.1a.9.9 0 0 0 .9-.9v-11.3a.67.67 0 0 0 -.7-.9z" opacity=".2"/><path d="m15.8 10.5h-7a6.56 6.56 0 0 0 5.4 7.5 3.4 3.4 0 0 0 1 .1h.6a4.53 4.53 0 0 0 -4.4 4.1h4.2a.9.9 0 0 0 .9-.9v-9.9a.67.67 0 0 0 -.7-.9z" opacity=".2"/><path d="m15.1 10.5h-6.3a6.56 6.56 0 0 0 5.4 7.5 3.4 3.4 0 0 0 1 .1h.6a4.53 4.53 0 0 0 -4.4 4.1h3.6a.9.9 0 0 0 .9-.9v-9.9a.77.77 0 0 0 -.8-.9z" opacity=".2"/><path d="m5.9 10.5h9.2a.9.9 0 0 1 .9.9v9.2a.9.9 0 0 1 -.9.9h-9.2a.9.9 0 0 1 -.9-.9v-9.2a.9.9 0 0 1 .9-.9z" fill="#03787c"/><path d="m8.9 15.9-.6-.6a2.35 2.35 0 0 1 -.2-.8 1.5 1.5 0 0 1 .4-1.1 2.07 2.07 0 0 1 1-.6 5.85 5.85 0 0 1 1.3-.2 11 11 0 0 1 1.8.2v1.2a1.91 1.91 0 0 0 -.8-.3 2.77 2.77 0 0 0 -.9-.1 3.55 3.55 0 0 0 -1 .2.68.68 0 0 0 -.4.6.52.52 0 0 0 .2.4c.1.1.3.2.4.3a5.9 5.9 0 0 1 .8.4h.1a3.13 3.13 0 0 1 1 .5c.2.2.5.4.6.6a1.49 1.49 0 0 1 .2.9 2 2 0 0 1 -.3 1.1 1.8 1.8 0 0 1 -.9.6 5.85 5.85 0 0 1 -1.3.2 4.87 4.87 0 0 1 -1.2-.1 3.81 3.81 0 0 1 -1-.3v-1.3a3.13 3.13 0 0 0 1 .5 3.59 3.59 0 0 0 1.1.2 3.55 3.55 0 0 0 1-.2.6.6 0 0 0 .3-.6.52.52 0 0 0 -.2-.4 2.18 2.18 0 0 0 -.5-.4 3.36 3.36 0 0 0 -1-.4c-.3-.2-.6-.3-.9-.5z" fill="#fff"/><path d="m5 5h22.1v22.1h-22.1z" fill="none"/></svg>

<svg xmlns="http://www.w3.org/2000/svg" viewBox="0 0 32 32">
<path d="M30,2V30H2V2H30m0-2H2A2,2,0,0,0,0,2V30a2,2,0,0,0,2,2H30a2,2,0,0,0,2-2V2A2,2,0,0,0,30,0Z" style="fill:#bcc3ca"/>
<circle cx="15.3" cy="11.5" r="6.6" style="fill:#036c70"/>
<circle cx="21.4" cy="17.3" r="5.6" style="fill:#1a9ba1"/>
<circle cx="16" cy="22.6" r="4.5" style="fill:#37c6d0"/>
<path d="M16.5,9.8H9a6.58,6.58,0,0,0,4.6,8.1,5,5,0,0,0,1.7.2h.6a4.6,4.6,0,0,0-4.4,4.5v.3h4.9a.9.9,0,0,0,.9-.9V10.7A.77.77,0,0,0,16.5,9.8Z" style="opacity:0.10000000149011612;isolation:isolate"/>
<path d="M15.8,10.5h-7A6.56,6.56,0,0,0,14.2,18a3.4,3.4,0,0,0,1,.1h.6a4.55,4.55,0,0,0-4.4,4.6,2.77,2.77,0,0,0,.1.9h4.1a.9.9,0,0,0,.9-.9V11.4A.67.67,0,0,0,15.8,10.5Z" style="opacity:0.20000000298023224;isolation:isolate"/>
<path d="M15.8,10.5h-7A6.56,6.56,0,0,0,14.2,18a3.4,3.4,0,0,0,1,.1h.6a4.53,4.53,0,0,0-4.4,4.1h4.2a.9.9,0,0,0,.9-.9V11.4A.67.67,0,0,0,15.8,10.5Z" style="opacity:0.20000000298023224;isolation:isolate"/>
<path d="M15.1,10.5H8.8A6.56,6.56,0,0,0,14.2,18a3.4,3.4,0,0,0,1,.1h.6a4.53,4.53,0,0,0-4.4,4.1H15a.9.9,0,0,0,.9-.9V11.4A.77.77,0,0,0,15.1,10.5Z" style="opacity:0.20000000298023224;isolation:isolate"/>
<path d="M5.9,10.5h9.2a.9.9,0,0,1,.9.9v9.2a.9.9,0,0,1-.9.9H5.9a.9.9,0,0,1-.9-.9V11.4a.9.9,0,0,1,.9-.9Z" style="fill:#03787c"/>
<path d="M8.9,15.9l-.6-.6a2.35,2.35,0,0,1-.2-.8,1.5,1.5,0,0,1,.4-1.1,2.07,2.07,0,0,1,1-.6,5.85,5.85,0,0,1,1.3-.2,11,11,0,0,1,1.8.2V14a1.91,1.91,0,0,0-.8-.3,2.77,2.77,0,0,0-.9-.1,3.55,3.55,0,0,0-1,.2.68.68,0,0,0-.4.6.52.52,0,0,0,.2.4c.1.1.3.2.4.3a5.9,5.9,0,0,1,.8.4H11a3.13,3.13,0,0,1,1,.5c.2.2.5.4.6.6a1.49,1.49,0,0,1,.2.9,2,2,0,0,1-.3,1.1,1.8,1.8,0,0,1-.9.6,5.85,5.85,0,0,1-1.3.2,4.87,4.87,0,0,1-1.2-.1,3.81,3.81,0,0,1-1-.3V17.7a3.13,3.13,0,0,0,1,.5,3.59,3.59,0,0,0,1.1.2,3.55,3.55,0,0,0,1-.2.6.6,0,0,0,.3-.6.52.52,0,0,0-.2-.4,2.18,2.18,0,0,0-.5-.4,3.36,3.36,0,0,0-1-.4C9.5,16.2,9.2,16.1,8.9,15.9Z" style="fill:#fff"/>
<rect x="5" y="5" width="22.1" height="22.1" style="fill:none"/>
</svg>
